X:9
T: Gasp'e Reel
I: Gaspe Reel   R-30    D       reel    Set 3
C: R-30
C: French Canadian
R: reel
M: C|
Q: 1/2=108
K: D
x8||:"D"f2ef e2dB| "D"DFAF B2A2| "Em"g2fg f2ed| "A"BABc (3BcBA2|
"D"f2ef e2dB| "D"DFAF B2A2|"Em"g2fg f2ed|"A" B2c2 "D"d4 :|
|:\
"A"e2f2 g2fe| "D"f2g2 a4| "A"e2f2 g2e2| "A"BABc (3BcBA2|
"A"e2f2 g2fe| "D"f2g2 a4| "A"e2f2 gfed| "A"B2c2 "D"d4 :|